X:44
T:Ben Nevis
R:Strathspey
B:The Athole Collection
M:C
L:1/8
K:D
F|D/D/D D>B A>FA>B|D/D/D D>B A>FE>F|D/D/D D>B ABde|
f<d e>f F<d E:|
|:B|A<F d>F A<F d>F|AF/F/ d<F B/A/G/F/ E>F|A<F d>F A>Bd>e|
f<de>f F<d E:|

